X: 39742
T: Thadelo's
R: barndance
M: 4/4
K: Amajor
|:dc|B2 B^A B2 G=A|BAGE D4|G2 G2 A2 GA|B2 G2 A2 dc|
B2 B2 BAGA|BAGE D4|G2 FG A2 dc|B2 G2 G2-:|
|:GA|Bdd^c d2 d2|eggf g2 g2|d3 e dBGA|BAAA A2 GA|
Bdd^c d2 Bd|eggf gage|d2 de d2 FA|B2 G2 G2-:|

